flaticon/hand-gestures/fingers-4.svg

<svg xmlns="http://www.w3.org/2000/svg" width="32" height="32" viewBox="0 0 24 24">
    <path d="M 21.246094 7.039062 C 20.964844 6.878906 20.644531 6.800781 20.324219 6.800781 C 19.683594 6.800781 19.164062 7.160156 18.722656 7.839844 C 18.605469 8.078125 18.164062 8.761719 17.722656 9.519531 L 19.324219 2.679688 C 19.445312 2.039062 19.203125 1.640625 19.003906 1.398438 C 18.683594 1 18.125 0.761719 17.523438 0.800781 C 16.644531 0.800781 16.003906 1.398438 15.722656 2.519531 L 14.324219 8.039062 L 14.324219 1.800781 C 14.324219 0.800781 13.523438 0 12.523438 0 C 11.523438 0 10.722656 0.800781 10.722656 1.800781 L 10.722656 8.121094 L 9.324219 3.28125 C 9.085938 2.640625 8.765625 1.640625 7.523438 1.601562 C 6.882812 1.601562 6.285156 1.960938 5.964844 2.480469 C 5.765625 2.878906 5.683594 3.320312 5.804688 3.800781 L 7.5625 10.960938 C 6.484375 9.71875 5.164062 8.960938 4.683594 8.679688 C 3.882812 8.238281 2.644531 8.558594 2.125 9.320312 C 1.964844 9.558594 1.523438 10.480469 2.765625 11.441406 C 3.925781 12.359375 5.324219 14.71875 5.765625 16.160156 C 5.765625 16.199219 5.765625 16.199219 5.765625 16.199219 C 6.445312 19.121094 8.125 20.558594 8.722656 21 L 8.722656 22.398438 C 8.722656 23.359375 9.363281 24 10.324219 24 L 17.324219 24 C 18.203125 24 18.722656 23.398438 18.722656 22.398438 L 18.722656 20.921875 C 19.804688 19.441406 19.925781 19.160156 19.925781 16.679688 C 19.925781 15.878906 20.203125 15.039062 20.445312 14.199219 L 22.003906 9.121094 C 22.246094 8.320312 21.925781 7.441406 21.246094 7.039062 Z M 21.246094 8.960938 L 19.804688 13.679688 L 19.683594 14.039062 C 19.402344 14.921875 19.125 15.800781 19.125 16.761719 C 19.125 19.003906 19.089844 19.152344 18.152344 20.398438 L 17.523438 20.398438 C 17.285156 20.398438 17.125 20.558594 17.125 20.800781 C 17.125 21.039062 17.285156 21.199219 17.523438 21.199219 L 17.925781 21.199219 L 17.925781 22.441406 C 17.925781 23.238281 17.523438 23.238281 17.324219 23.238281 L 10.324219 23.238281 C 10.125 23.238281 9.523438 23.160156 9.523438 22.441406 L 9.523438 21.199219 L 10.324219 21.199219 C 10.5625 21.199219 10.722656 21.039062 10.722656 20.800781 C 10.722656 20.558594 10.5625 20.398438 10.324219 20.398438 L 9.226562 20.398438 C 8.804688 20.070312 7.117188 18.710938 6.523438 15.921875 C 6.523438 15.878906 6.484375 15.839844 6.484375 15.800781 C 6.003906 14.359375 4.644531 11.878906 3.324219 10.800781 C 2.964844 10.519531 2.605469 10.121094 2.84375 9.761719 C 3.085938 9.320312 3.882812 9.121094 4.324219 9.359375 C 5.003906 9.71875 7.246094 11.121094 8.164062 13.320312 C 8.402344 13.878906 8.683594 14.558594 9.523438 15.121094 C 9.5625 15.160156 9.644531 15.199219 9.722656 15.199219 C 9.84375 15.199219 9.964844 15.121094 10.085938 15 C 10.203125 14.800781 10.164062 14.558594 9.964844 14.441406 C 9.324219 14.039062 9.125 13.558594 8.925781 13.039062 C 8.917969 13.019531 8.910156 13 8.902344 12.984375 L 6.605469 3.601562 C 6.5625 3.320312 6.5625 3.078125 6.683594 2.878906 C 6.84375 2.601562 7.164062 2.398438 7.523438 2.398438 C 8.085938 2.398438 8.285156 2.761719 8.523438 3.519531 L 10.722656 11.039062 C 10.730469 11.070312 10.738281 11.097656 10.753906 11.125 C 10.757812 11.210938 10.75 11.273438 10.722656 11.320312 C 10.5625 11.398438 10.445312 11.558594 10.484375 11.761719 C 10.523438 11.960938 10.683594 12.078125 10.882812 12.078125 C 10.925781 12.078125 10.925781 12.078125 10.964844 12.078125 C 11.125 12.054688 11.257812 11.96875 11.355469 11.847656 C 11.445312 11.894531 11.542969 11.921875 11.644531 11.921875 C 11.683594 11.921875 11.722656 11.921875 11.804688 11.921875 C 12.042969 11.878906 12.164062 11.640625 12.125 11.441406 C 12.085938 11.238281 11.925781 11.121094 11.722656 11.121094 C 11.683594 11.039062 11.605469 10.921875 11.5625 10.71875 C 11.558594 10.675781 11.542969 10.636719 11.523438 10.601562 L 11.523438 1.800781 C 11.523438 1.238281 11.964844 0.800781 12.523438 0.800781 C 13.085938 0.800781 13.523438 1.238281 13.523438 1.800781 L 13.523438 11.160156 C 13.523438 11.167969 13.523438 11.171875 13.523438 11.179688 C 13.523438 11.1875 13.523438 11.191406 13.523438 11.199219 C 13.523438 11.398438 13.484375 11.558594 13.445312 11.601562 C 13.246094 11.640625 13.125 11.800781 13.125 12 C 13.125 12.238281 13.285156 12.398438 13.523438 12.398438 C 13.675781 12.398438 13.808594 12.347656 13.925781 12.257812 C 14.039062 12.347656 14.171875 12.398438 14.324219 12.398438 C 14.5625 12.398438 14.722656 12.238281 14.722656 12 C 14.722656 11.800781 14.5625 11.640625 14.402344 11.601562 C 14.367188 11.566406 14.335938 11.4375 14.324219 11.273438 L 16.484375 2.679688 C 16.683594 1.960938 17.042969 1.601562 17.523438 1.601562 C 17.925781 1.601562 18.246094 1.71875 18.445312 1.878906 C 18.5625 2.039062 18.605469 2.238281 18.5625 2.480469 L 16.390625 11.769531 C 16.359375 11.816406 16.335938 11.867188 16.324219 11.921875 C 16.285156 12.160156 16.203125 12.28125 16.164062 12.320312 C 15.964844 12.320312 15.804688 12.441406 15.765625 12.640625 C 15.722656 12.878906 15.882812 13.078125 16.085938 13.121094 C 16.125 13.121094 16.164062 13.121094 16.203125 13.121094 C 16.296875 13.121094 16.410156 13.097656 16.515625 13.050781 C 16.609375 13.171875 16.734375 13.253906 16.882812 13.28125 C 16.925781 13.28125 16.925781 13.28125 16.964844 13.28125 C 17.164062 13.28125 17.324219 13.121094 17.363281 12.960938 C 17.402344 12.761719 17.285156 12.601562 17.125 12.519531 C 17.125 12.480469 17.085938 12.328125 17.121094 12.136719 C 17.394531 11.671875 19.109375 8.757812 19.40625 8.28125 C 19.765625 7.679688 20.085938 7.601562 20.324219 7.601562 C 20.523438 7.601562 20.683594 7.640625 20.84375 7.800781 C 21.203125 8.039062 21.363281 8.519531 21.246094 8.960938 Z M 21.246094 8.960938"/>
</svg>

<svg xmlns="http://www.w3.org/2000/svg" width="32" height="32" viewBox="0 0 24 24">
    <path d="M21.246 7.04a1.864 1.864 0 0 0-.922-.24c-.64 0-1.16.36-1.601 1.04-.118.238-.559.922-1 1.68l1.601-6.84c.121-.64-.12-1.04-.32-1.282-.32-.398-.879-.636-1.48-.597-.88 0-1.52.597-1.801 1.719l-1.399 5.52V1.8c0-1-.8-1.8-1.8-1.8s-1.801.8-1.801 1.8v6.321l-1.399-4.84c-.238-.64-.558-1.64-1.8-1.68-.641 0-1.239.36-1.56.88-.198.398-.28.84-.16 1.32l1.758 7.16c-1.078-1.242-2.398-2-2.878-2.281-.801-.442-2.04-.121-2.559.64-.16.239-.602 1.16.64 2.121 1.16.918 2.56 3.278 3 4.72v.038c.68 2.922 2.36 4.36 2.958 4.801v1.398c0 .961.64 1.602 1.601 1.602h7c.88 0 1.399-.602 1.399-1.602v-1.476c1.082-1.48 1.203-1.762 1.203-4.242 0-.801.277-1.64.52-2.48l1.558-5.079c.242-.8-.078-1.68-.758-2.082zm0 1.92l-1.441 4.72-.121.36c-.282.882-.559 1.76-.559 2.722 0 2.242-.035 2.39-.973 3.636h-.629c-.238 0-.398.16-.398.403 0 .238.16.398.398.398h.403v1.242c0 .797-.403.797-.602.797h-7c-.199 0-.8-.078-.8-.797V21.2h.8c.239 0 .399-.16.399-.398 0-.242-.16-.403-.399-.403H9.227c-.422-.328-2.11-1.687-2.704-4.476 0-.043-.039-.082-.039-.121-.48-1.442-1.84-3.922-3.16-5-.36-.281-.719-.68-.48-1.04.242-.44 1.039-.64 1.48-.402.68.36 2.922 1.762 3.84 3.961.238.559.52 1.239 1.36 1.801a.31.31 0 0 0 .199.078c.12 0 .242-.078.363-.199.117-.2.078-.441-.121-.559-.64-.402-.84-.882-1.04-1.402a.766.766 0 0 0-.023-.055L6.605 3.602c-.043-.282-.043-.524.079-.723.16-.277.48-.48.84-.48.562 0 .761.363 1 1.12l2.199 7.52a.323.323 0 0 0 .03.086c.005.086-.003.148-.03.195-.16.078-.278.239-.239.442.04.199.2.316.399.316h.082a.613.613 0 0 0 .39-.23c.09.047.188.074.29.074h.16c.238-.043.36-.281.32-.48-.04-.204-.2-.32-.402-.32-.04-.083-.118-.2-.16-.403a.297.297 0 0 0-.04-.117V1.8c0-.563.442-1 1-1 .563 0 1 .437 1 1V11.2c0 .198-.039.359-.078.402-.199.039-.32.199-.32.398 0 .238.16.398.398.398.153 0 .286-.05.403-.14.113.09.246.14.398.14.239 0 .399-.16.399-.398 0-.2-.16-.36-.32-.398-.036-.036-.067-.165-.079-.329l2.16-8.593c.2-.72.559-1.078 1.04-1.078.402 0 .722.117.921.277.117.16.16.36.117.601l-2.171 9.29a.442.442 0 0 0-.067.152c-.039.238-.12.36-.16.398-.2 0-.36.121-.398.32a.413.413 0 0 0 .32.481h.117a.799.799 0 0 0 .313-.07.598.598 0 0 0 .367.23h.082c.2 0 .36-.16.398-.32.04-.2-.078-.36-.238-.441 0-.04-.04-.192-.004-.383.274-.465 1.988-3.38 2.285-3.856.36-.601.68-.68.918-.68.2 0 .36.04.52.2.36.238.52.719.402 1.16zm0 0"/>
</svg>
